X:1
T:Dies est laetitiae
T:Dies est laetitiae
T:André Vierendeels (27/11/10)
C:André Vierendeels
C:(27/11/10)
%%score [ 1 2 3 4 ]
L:1/8
Q:1/4=120
M:2/2
K:G
V:1 treble nm="Soprano" snm="S"
V:2 treble nm="Alto" snm="A"
V:3 treble-8 nm="Tenor" snm="T"
V:4 bass nm="Bass" snm="B"
V:1
 G4 G4 | A4 B4 | c2 B2 c2 A2 | !fermata!G6 G2 | A4 G4 | E4 F4 | G4 A4 | !fermata!G8 :| d4 d4 | %9
w: Di- es|est lae-|ti _ ti- *|ae in|or- *|tu re-|ga- *|li,|pu- er|
w: Nam pro-|ces- sit|ho- * di- *|e de|ven- tre|vir- gi-|na- *|li||
 e4 d4 | B4 c4 | !fermata!d8 | d4 d4 | e4 d4 | c4 A4 | !fermata!G8 | E4 F4 | G4 E4 | D4 ^C4 | %19
w: ad- mi-|ra- bi-|lis,|to- tus|de- lec-|ta- bi-|lis|in hu-|ma- ni-|ta _|
w: ||||||||||
 !fermata!D8 | G4 G4 | A4 B4 | c2 B2 c2 A2 | !fermata!B8 | A4 G4 | E4 F4 | G4 E4 | !fermata!D8 | %28
w: te,|qui in-|e- sti-|ma- * bi- *|lis|est et|in- ef-|fa- bi-|lis|
w: |||||||||
 E4 D4 | E4 =F4 | G4 F4 | !fermata!G8 |] %32
w: in di-|vi- ni-|ta- *|te.|
w: ||||
V:2
 D4 E4 | D4 D4 | G4 E4 | !fermata!D6 D2 | D4 E4 | C4 D4 | D8 | !fermata!D8 :| G4 D4 | G4 F4 | %10
w: Di- es|est lae-|ti- ti-|ae in|or- *|tu re-|ga-|li,|pu- er|ad- mi-|
w: Nam pro-|ces- sit|ho- di-|e de|ven- tre|vir- gi-|na-|li|||
 G4 E4 | !fermata!F8 | G4 F4 | E4 F4 | G4 D2 C2 | !fermata!D8 | C4 D4 | D2 B,2 E2 G2 | E8 | %19
w: ra- bi-|lis,|to- tus|de- lec-|ta- bi- *|lis|in hu-|ma- * ni- *|ta-|
w: |||||||||
 !fermata!A,8 | E3 C B,4 | F4 G4 | E4 G2 F2 | !fermata!G8 | =F4 C4 | B,2 C2 D4 | E4 C4 | %27
w: te,|qui- * in-|e- sti-|ma- bi- *|lis|est et|in- * ef-|fa- bi-|
w: ||||||||
 !fermata!A,8 | C4 D4 | C4 A,4 | D2 C2 D3 C | !fermata!D8 |] %32
w: lis|in di-|vi- ni-|ta- * * *|te.|
w: |||||
V:3
 B4 G4 | F4 G2 =F2 | E4 A4 | !fermata!B6 B2 | A4 c4 | A2 G2 A4 | G4 F4 | !fermata!B8 :| B4 B4 | %9
w: Di- es|est lae- *|ti- ti-|ae in|or- *|tu _ re-|ga- *|li,|pu- er|
w: Nam pro-|ces- sit _|ho- di-|e de|ven- tre|vir- * gi-|na- *|li||
 c4 A4 | B4 A4 | !fermata!A8 | B4 A2 B2 | c4 d3 A | cBAG F4 | !fermata!B8 | A4 A4 | G4 G2 E2 | %18
w: ad- mi-|ra- bi-|lis,|tu- tus _|de- lec- *|ta- * * * bi-|lis|in hu-|ma- ni- *|
w: |||||||||
 A2 GF E2 A2 | !fermata!F8 | GFGA d4- | d2 c2 d2 B2 | A4 c4 | !fermata!d8 | c4 G2 A2 | G4 A2 B2 | %26
w: ta- * * * *|te,|qui _ _ _ in-|* e- sti- *|ma- bi-|lis|est et _|in- ef- *|
w: ||||||||
 c4 A2 G2 | !fermata!F8 | G4 B4 | G4 c4 | _B2 AG A2 d2 | !fermata!B8 |] %32
w: fa- bi- *|lis|in di-|vi- ni-|ta- * * * *|te.|
w: ||||||
V:4
 G,4 C,2 B,,2 | D,2 C,2 G,,4 | C,4 A,,4 | !fermata!G,,6 G,2 | F,4 C,2 G,,2 | A,,4 D,4 | B,,4 D,4 | %7
w: Di- es _|est _ lae-|ti- ti-|ae in|or- * *|tu re-|ga- *|
w: Nam pro- *|ces- * sit|ho- di-|e de|ven- tro _|vir- gi-|na- *|
 !fermata!G,8 :| G,4 G,,4 | C,4 D,4 | E,4 A,,4 | !fermata!D,8 | G,2 F,E, D,4 | A,G,F,E, D,4 | %14
w: li,|p- er|ad- mi-|ra- bi-|lis,|to- * * tus|de- * * * lec-|
w: li|||||||
 E,4 D,4 | !fermata!G,8 | A,G,F,E, D,4 | B,,4 C,4 | A,,8 | !fermata!D,8 | C,D,E,F, G,4 | %21
w: ta- bi-|lis|in _ _ _ hu-|ma- *|ta-|te,|qui _ _ _ in-|
w: |||||||
 D,4 G,2 E,2 | A,,4 E,2 D,2 | !fermata!G,,8 | =F,,G,,A,,B,, C,4 | E,4 D,4 | C,4 A,,4 | %27
w: e- sti- *|ma- bi- *|lis|est _ _ _ et|in- ef-|fa- bi-|
w: ||||||
 !fermata!D,8 | C,4 G,2 F,2 | C,4 =F,4 | G,2 C,_E, D,4 | !fermata!G,8 |] %32
w: lis|in di- *|vi- ni-|ta- * * *|te.|
w: |||||

